docs/public/vitepress-logo-mini.svg

<svg width="48" height="48" viewBox="0 0 48 48" fill="none" xmlns="http://www.w3.org/2000/svg">
<g clip-path="url(#clip0_1221_64)">
<path d="M32.0576 0.156762L9.61152 3.31135C6.51236 3.74691 4.35049 6.59389 4.78285 9.67026L9.47994 43.0918C9.9123 46.1682 12.7752 48.309 15.8743 47.8734L38.3204 44.7188C41.4195 44.2833 43.5814 41.4363 43.1491 38.3599L38.452 4.93837C38.0196 1.862 35.1568 -0.278796 32.0576 0.156762Z" fill="white"/>
<path d="M9.26274 4.3702L32.6847 1.07845C34.9845 0.755234 37.0747 2.32365 37.3859 4.53849L42.2345 39.0382C42.5458 41.253 40.969 43.3368 38.6692 43.66L15.2472 46.9517C12.9474 47.2749 10.8572 45.7065 10.546 43.4917L5.69736 8.99203C5.38608 6.77719 6.96292 4.69342 9.26274 4.3702Z" stroke="url(#paint0_linear_1221_64)" stroke-width="2"/>
<mask id="mask0_1221_64" style="mask-type:luminance" maskUnits="userSpaceOnUse" x="11" y="11" width="27" height="26">
<path d="M33.9901 11.2517L11.5441 14.4063L14.6755 36.6874L37.1215 33.5328L33.9901 11.2517Z" fill="white"/>
</mask>
<g mask="url(#mask0_1221_64)">
<path d="M33.8846 14.6143L26.3616 34.1758C26.2063 34.5796 25.6723 34.6569 25.4088 34.3138L12.5852 17.6094C12.2982 17.2355 12.5738 16.6949 13.0425 16.713L23.3817 17.1115C23.4476 17.1141 23.5135 17.1047 23.5761 17.0838L33.1945 13.8834C33.6382 13.7358 34.0534 14.1753 33.8846 14.6143Z" fill="url(#paint1_linear_1221_64)"/>
<path d="M27.5952 12.239L20.3475 14.7582C20.2284 14.7995 20.1524 14.917 20.1626 15.0435L20.8006 22.9097C20.8156 23.0951 21.0032 23.2141 21.1754 23.1478L23.183 22.3736C23.3708 22.3011 23.5705 22.4487 23.5583 22.6511L23.3691 25.7796C23.3565 25.9901 23.5719 26.1383 23.7617 26.0497L24.9885 25.4771C25.1786 25.3885 25.3942 25.5371 25.3811 25.748L25.0727 30.6636C25.0534 30.9711 25.4709 31.0785 25.5994 30.7992L25.6852 30.6126L30.0433 17.547C30.1163 17.3282 29.9081 17.1198 29.6913 17.1944L27.6134 17.9099C27.4181 17.9771 27.2208 17.8128 27.2496 17.607L27.9596 12.5417C27.9886 12.3355 27.7906 12.171 27.5952 12.239Z" fill="url(#paint2_linear_1221_64)"/>
</g>
</g>
<defs>
<linearGradient id="paint0_linear_1221_64" x1="3.16705" y1="3.48412" x2="44.0353" y2="45.2598" gradientUnits="userSpaceOnUse">
<stop stop-color="#49C7FF"/>
<stop offset="1" stop-color="#BD36FF"/>
</linearGradient>
<linearGradient id="paint1_linear_1221_64" x1="12.1285" y1="16.1801" x2="27.1835" y2="31.4643" gradientUnits="userSpaceOnUse">
<stop stop-color="#41D1FF"/>
<stop offset="1" stop-color="#BD34FE"/>
</linearGradient>
<linearGradient id="paint2_linear_1221_64" x1="22.269" y1="13.3949" x2="26.7717" y2="28.7391" gradientUnits="userSpaceOnUse">
<stop stop-color="#FFEA83"/>
<stop offset="0.0833333" stop-color="#FFDD35"/>
<stop offset="1" stop-color="#FFA800"/>
</linearGradient>
<clipPath id="clip0_1221_64">
<rect width="48" height="48" fill="white"/>
</clipPath>
</defs>
</svg>

<svg xmlns="http://www.w3.org/2000/svg" fill="none" viewBox="0 0 48 48"><g clip-path="url(#a)"><path fill="#fff" d="M32.058.157 9.612 3.31c-3.1.436-5.262 3.283-4.83 6.36L9.48 43.09c.432 3.077 3.295 5.218 6.394 4.782L38.32 44.72c3.1-.436 5.261-3.283 4.83-6.36L38.451 4.94C38.02 1.861 35.157-.28 32.058.156Z"/><path stroke="url(#b)" stroke-width="2" d="m9.263 4.37 23.422-3.292c2.3-.323 4.39 1.246 4.7 3.46l4.85 34.5c.31 2.215-1.266 4.299-3.566 4.622l-23.422 3.292c-2.3.323-4.39-1.245-4.701-3.46l-4.849-34.5c-.31-2.215 1.266-4.299 3.566-4.622Z"/><mask id="c" width="27" height="26" x="11" y="11" maskUnits="userSpaceOnUse" style="mask-type:luminance"><path fill="#fff" d="m33.99 11.252-22.446 3.154 3.131 22.281 22.446-3.154-3.13-22.281Z"/></mask><g mask="url(#c)"><path fill="url(#d)" d="m33.885 14.614-7.523 19.562a.55.55 0 0 1-.953.138L12.585 17.609a.556.556 0 0 1 .457-.896l10.34.398a.546.546 0 0 0 .194-.027l9.618-3.2a.556.556 0 0 1 .69.73Z"/><path fill="url(#e)" d="m27.595 12.239-7.247 2.52a.278.278 0 0 0-.185.284l.638 7.867a.277.277 0 0 0 .374.238l2.008-.774a.277.277 0 0 1 .375.277l-.189 3.129a.277.277 0 0 0 .393.27l1.226-.573c.19-.088.406.06.393.271l-.308 4.916c-.02.307.398.414.526.135l.086-.186 4.358-13.066a.278.278 0 0 0-.352-.353l-2.078.716a.278.278 0 0 1-.363-.303l.71-5.065a.278.278 0 0 0-.365-.303Z"/></g></g><defs><linearGradient id="b" x1="3.167" x2="44.035" y1="3.484" y2="45.26" gradientUnits="userSpaceOnUse"><stop stop-color="#49C7FF"/><stop offset="1" stop-color="#BD36FF"/></linearGradient><linearGradient id="d" x1="12.129" x2="27.183" y1="16.18" y2="31.464" gradientUnits="userSpaceOnUse"><stop stop-color="#41D1FF"/><stop offset="1" stop-color="#BD34FE"/></linearGradient><linearGradient id="e" x1="22.269" x2="26.772" y1="13.395" y2="28.739" gradientUnits="userSpaceOnUse"><stop stop-color="#FFEA83"/><stop offset=".083" stop-color="#FFDD35"/><stop offset="1" stop-color="#FFA800"/></linearGradient><clipPath id="a"><path fill="#fff" d="M0 0h48v48H0z"/></clipPath></defs></svg>
